assets/img/index__slide2-1.svg

<svg xmlns="http://www.w3.org/2000/svg" viewBox="0 0 66 66" enable-background="new 0 0 66 66"><style type="text/css">.st0{fill:#262626;}</style><path class="st0" d="M52.2 20.5c-.1-1.2-1-2.1-2.2-2.1h-7.6l-1.8-11.6c-.6-3.7-3.8-6.4-7.6-6.4s-7 2.7-7.6 6.5l-1.8 11.6h-7.6c-1.2 0-2.1.9-2.2 2.1l-2.1 42.9c0 .6.2 1.2.6 1.6.4.4 1 .7 1.6.7h38.2c.6 0 1.2-.2 1.6-.7.4-.4.6-1 .6-1.6l-2.1-43zm-24.7-13.3c.5-2.8 2.8-4.7 5.5-4.7s5 2 5.5 4.7l1.8 11.3h-14.6l1.8-11.3zm24.7 56.3h-38.4v-.1l2.2-42.8s0-.1.1-.1h7.2l-.3 2.2c-.1.6.3 1.1.9 1.2h.2c.5 0 1-.4 1-.9l.4-2.5h15.2l.3 2.5c.1.6.6 1 1.2.9.6-.1 1-.6.9-1.2l-.3-2.2h7.2s.1 0 .1.1l2.1 42.9zm0 0M33 27.4c-.6 0-1.1.5-1.1 1.1v5.7h-1.3v-5.7c0-.6-.5-1.1-1.1-1.1-.6 0-1.1.5-1.1 1.1v5.7h-1.3v-5.7c0-.6-.5-1.1-1.1-1.1-.6 0-1.1.5-1.1 1.1v7.9c0 1.8 1.5 3.3 3.3 3.3h.1v18.1c0 .6.5 1.1 1.1 1.1.6 0 1.1-.5 1.1-1.1v-18.1h.1c1.8 0 3.3-1.5 3.3-3.3v-7.9c.2-.6-.3-1.1-.9-1.1zm-1.1 9c0 .7-.5 1.2-1.2 1.2h-2.3c-.7 0-1.2-.5-1.2-1.2v-.1l4.7.1zm0 0M40.9 29.5c-.1-1.2-1.1-2-2.2-2-1.2 0-2.2 1-2.2 2.2v28.1c0 .6.5 1.1 1.1 1.1.6 0 1.1-.5 1.1-1.1v-6.8h.9c.9 0 1.8-.4 2.5-1.1.6-.7.9-1.6.8-2.6l-2-17.8zm-.5 19c-.2.3-.5.4-.9.4h-.9v-19.2c0-.1.1-.1.1-.1.1 0 .1 0 .1.1l1.9 17.8c0 .4-.1.7-.3 1zm0 0"/></svg>

<?xml version="1.0" encoding="utf-8"?>
<!-- Generator: Adobe Illustrator 19.2.0, SVG Export Plug-In . SVG Version: 6.00 Build 0)  -->
<svg version="1.1" id="Layer_1" xmlns="http://www.w3.org/2000/svg" xmlns:xlink="http://www.w3.org/1999/xlink" x="0px" y="0px"
	 viewBox="0 0 66 66" style="enable-background:new 0 0 66 66;" xml:space="preserve">
<style type="text/css">
	.st0{fill:#262626;}
</style>
<g>
	<path class="st0" d="M52.2,20.5c-0.1-1.2-1-2.1-2.2-2.1h-7.6L40.6,6.8C40,3.1,36.8,0.4,33,0.4c-3.8,0-7,2.7-7.6,6.5l-1.8,11.6H16
		c-1.2,0-2.1,0.9-2.2,2.1l-2.1,42.9c0,0.6,0.2,1.2,0.6,1.6c0.4,0.4,1,0.7,1.6,0.7h38.2c0.6,0,1.2-0.2,1.6-0.7c0.4-0.4,0.6-1,0.6-1.6
		L52.2,20.5z M27.5,7.2C28,4.4,30.3,2.5,33,2.5c2.7,0,5,2,5.5,4.7l1.8,11.3H25.7L27.5,7.2z M52.2,63.5
		C52.1,63.5,52.1,63.5,52.2,63.5l-38.3,0c0,0,0,0-0.1,0c0,0,0,0,0-0.1L16,20.6c0,0,0-0.1,0.1-0.1h7.2l-0.3,2.2
		c-0.1,0.6,0.3,1.1,0.9,1.2c0.1,0,0.1,0,0.2,0c0.5,0,1-0.4,1-0.9l0.4-2.5h15.2L41,23c0.1,0.6,0.6,1,1.2,0.9c0.6-0.1,1-0.6,0.9-1.2
		l-0.3-2.2H50c0,0,0.1,0,0.1,0.1L52.2,63.5C52.2,63.5,52.2,63.5,52.2,63.5L52.2,63.5z M52.2,63.5"/>
	<path class="st0" d="M33,27.4c-0.6,0-1.1,0.5-1.1,1.1v5.7h-1.3v-5.7c0-0.6-0.5-1.1-1.1-1.1c-0.6,0-1.1,0.5-1.1,1.1v5.7h-1.3v-5.7
		c0-0.6-0.5-1.1-1.1-1.1c-0.6,0-1.1,0.5-1.1,1.1v7.9c0,1.8,1.5,3.3,3.3,3.3h0.1v18.1c0,0.6,0.5,1.1,1.1,1.1c0.6,0,1.1-0.5,1.1-1.1
		V39.7h0.1c1.8,0,3.3-1.5,3.3-3.3v-7.9C34.1,27.9,33.6,27.4,33,27.4L33,27.4z M31.9,36.4c0,0.7-0.5,1.2-1.2,1.2h-2.3
		c-0.7,0-1.2-0.5-1.2-1.2v-0.1L31.9,36.4L31.9,36.4z M31.9,36.4"/>
	<path class="st0" d="M40.9,29.5c-0.1-1.2-1.1-2-2.2-2c-1.2,0-2.2,1-2.2,2.2v28.1c0,0.6,0.5,1.1,1.1,1.1c0.6,0,1.1-0.5,1.1-1.1V51
		h0.9c0.9,0,1.8-0.4,2.5-1.1c0.6-0.7,0.9-1.6,0.8-2.6L40.9,29.5z M40.4,48.5c-0.2,0.3-0.5,0.4-0.9,0.4h-0.9V29.7
		c0-0.1,0.1-0.1,0.1-0.1c0.1,0,0.1,0,0.1,0.1l1.9,17.8C40.7,47.9,40.6,48.2,40.4,48.5L40.4,48.5z M40.4,48.5"/>
</g>
</svg>
